assets/images/phone.svg

<svg fill="none" height="8" viewBox="0 0 8 8" width="8" xmlns="http://www.w3.org/2000/svg" xmlns:xlink="http://www.w3.org/1999/xlink"><linearGradient id="a" gradientUnits="userSpaceOnUse" x1="6.3023" x2="6.30229" y1="-.491448" y2="16.7816"><stop offset="0" stop-color="#3a4a3e"/><stop offset="1" stop-color="#fff"/></linearGradient><path d="m6.37663 8c-.58295 0-1.27327-.19619-1.99632-.56726-.75381-.38698-1.50994-.94914-2.1866-1.62585-.89664-.89681-1.584845-1.92553-1.937686-2.89677-.3383345-.93105-.3414302-1.72564-.008741-2.237297.068407-.105258.16504-.192669.279456-.252885l.748471-.3937147c.03309-.01736078.06872-.0262233.10592-.0262233.06829 0 .13239.030169.17585.0826764l1.16432 1.4073836c.07545.09117.06919.22296-.01445.3066l-.44899.44902c-.14713.14714-.18677.37247-.09869.56076.15405.32931.52553.99479 1.2828 1.75205.75728.7572 1.42272 1.12882 1.75201 1.28288.06628.03096.13681.04668.20983.04668.13257 0 .25718-.0516.3509-.14538l.44899-.44908c.04304-.04303.10034-.06677.16128-.06677.05365 0 .10391.01809.14525.05233l1.40736 1.16439c.08261.06841.10634.1869.05645.28184l-.39376.74845c-.06015.11443-.14761.21107-.25293.2796-.25147.16353-.57135.24645-.95072.24645z" fill="url(#a)"/></svg>

<svg width="8" height="8" viewBox="0 0 8 8" fill="none" xmlns="http://www.w3.org/2000/svg">
<path d="M6.37663 8C5.79368 8 5.10336 7.80381 4.38031 7.43274C3.6265 7.04576 2.87037 6.4836 2.19371 5.80689C1.29707 4.91008 0.608865 3.88136 0.256024 2.91012C-0.0823105 1.97907 -0.0854062 1.18448 0.247283 0.672823C0.31569 0.567565 0.412323 0.480154 0.526739 0.419938L1.27521 0.0262233C1.3083 0.00886252 1.34393 0 1.38113 0C1.44942 0 1.51352 0.030169 1.55698 0.0826764L2.7213 1.49006C2.79675 1.58123 2.79049 1.71302 2.70685 1.79666L2.25786 2.24568C2.11073 2.39282 2.07109 2.61815 2.15917 2.80644C2.31322 3.13575 2.6847 3.80123 3.44197 4.55849C4.19925 5.31569 4.86469 5.68731 5.19398 5.84137C5.26026 5.87233 5.33079 5.88805 5.40381 5.88805C5.53638 5.88805 5.66099 5.83645 5.75471 5.74267L6.2037 5.29359C6.24674 5.25056 6.30404 5.22682 6.36498 5.22682C6.41863 5.22682 6.46889 5.24491 6.51023 5.27915L7.91759 6.44354C8.0002 6.51195 8.02393 6.63044 7.97404 6.72538L7.58028 7.47383C7.52013 7.58826 7.43267 7.6849 7.32735 7.75343C7.07588 7.91696 6.756 7.99988 6.37663 7.99988V8Z" fill="url(#paint0_linear_1405_166)"/>
<defs>
<linearGradient id="paint0_linear_1405_166" x1="6.3023" y1="-0.491448" x2="6.30229" y2="16.7816" gradientUnits="userSpaceOnUse">
<stop stop-color="#3A4A3E"/>
<stop offset="1" stop-color="white"/>
</linearGradient>
</defs>
</svg>
